svgs/sharp-solid/fire-hydrant.svg

<svg xmlns="http://www.w3.org/2000/svg" viewBox="0 0 384 512"><!--! Font Awesome Pro 6.6.0 by @fontawesome - https://fontawesome.com License - https://fontawesome.com/license (Commercial License) Copyright 2024 Fonticons, Inc. --><path d="M224 32l0 4c45 11.6 80.4 47 92 92l12 0 24 0 0 48-24 0L56 176l-24 0 0-48 24 0 12 0c11.6-45 47-80.4 92-92l0-4 0-32 64 0 0 32zM32 464l24 0 8 0 0-64-48 0 0-128 48 0 0-64 256 0 0 64 48 0 0 128-48 0 0 64 8 0 24 0 0 48-24 0-8 0L64 512l-8 0-24 0 0-48zm160-64a64 64 0 1 0 0-128 64 64 0 1 0 0 128z"/></svg>

<svg xmlns="http://www.w3.org/2000/svg" viewBox="0 0 384 512"><!--! Font Awesome Pro 6.5.2 by @fontawesome - https://fontawesome.com License - https://fontawesome.com/license (Commercial License) Copyright 2024 Fonticons, Inc. --><path d="M224 32v4c45 11.6 80.4 47 92 92h12 24v48H328 56 32V128H56 68c11.6-45 47-80.4 92-92V32 0h64V32zM32 464H56h8V400H16V272H64V208H320v64h48V400H320v64h8 24v48H328h-8H64 56 32V464zm160-64a64 64 0 1 0 0-128 64 64 0 1 0 0 128z"/></svg>
